dist/js/editor/components/assets/wordmark.svg

<svg width="46" height="24" viewBox="0 0 46 24" fill="none" xmlns="http://www.w3.org/2000/svg">
<path fill-rule="evenodd" clip-rule="evenodd" d="M11 2H14V13.9332L14.0003 13.9731L14.0003 14C14.0003 14.0223 14.0002 14.0445 14 14.0668V21H11V19.7455C9.86619 20.5362 8.48733 21 7.00016 21C3.13408 21 0 17.866 0 14C0 10.134 3.13408 7 7.00016 7C8.48733 7 9.86619 7.46375 11 8.25452V2ZM7 17.9998C9.20914 17.9998 11 16.209 11 13.9999C11 11.7908 9.20914 10 7 10C4.79086 10 3 11.7908 3 13.9999C3 16.209 4.79086 17.9998 7 17.9998ZM32 2H35V8.25474C36.1339 7.46383 37.5128 7 39.0002 7C42.8662 7 46.0003 10.134 46.0003 14C46.0003 17.866 42.8662 21 39.0002 21C35.1341 21 32 17.866 32 14V2ZM39 17.9998C41.2091 17.9998 43 16.209 43 13.9999C43 11.7908 41.2091 10 39 10C36.7909 10 35 11.7908 35 13.9999C35 16.209 36.7909 17.9998 39 17.9998ZM19 7H16V14C16 14.9192 16.1811 15.8295 16.5329 16.6788C16.8846 17.5281 17.4003 18.2997 18.0503 18.9497C18.7003 19.5997 19.472 20.1154 20.3213 20.4671C21.1706 20.8189 22.0809 21 23.0002 21C23.9194 21 24.8297 20.8189 25.679 20.4671C26.5283 20.1154 27.3 19.5997 27.95 18.9497C28.6 18.2997 29.1157 17.5281 29.4675 16.6788C29.8192 15.8295 30.0003 14.9192 30.0003 14H30V7H27V14C27 15.0608 26.5785 16.0782 25.8284 16.8283C25.0783 17.5784 24.0609 17.9998 23 17.9998C21.9391 17.9998 20.9217 17.5784 20.1716 16.8283C19.4215 16.0782 19 15.0608 19 14V7Z" fill="black"/>
</svg>

<svg xmlns="http://www.w3.org/2000/svg" width="46" height="24" fill="none" viewBox="0 0 46 24"><path fill="#000" fill-rule="evenodd" d="M11 2h3v19h-3v-1.255a7 7 0 1 1 0-11.491zM7 18a4 4 0 1 0 0-8 4 4 0 0 0 0 8M32 2h3v6.255A7 7 0 1 1 32 14zm7 16a4 4 0 1 0 0-8 4 4 0 0 0 0 8M19 7h-3v7a7 7 0 0 0 14 0V7h-3v7a4 4 0 0 1-8 0z" clip-rule="evenodd"/></svg>
